web-magafilio/image/home/divisor.svg

<svg width="1920" height="190" viewBox="0 0 1920 190" fill="none" xmlns="http://www.w3.org/2000/svg">
<path fill-rule="evenodd" clip-rule="evenodd" d="M0.0452881 110.889V26.8116C39.4247 32.3677 80.6284 38.7616 123.573 46.0978C574.913 123.199 961.137 83.1949 1166.38 64.9677C1170.44 64.6068 1174.42 64.2531 1178.32 63.9073C1215.79 60.5885 1264.44 55.7234 1320.72 50.0958C1485.05 33.6638 1714.39 10.731 1920 0.808838V112.977C1777.4 119.81 1610.25 109.427 1477.61 99.1343C1278.08 83.6499 1150.5 109.169 1009.52 137.366C912.487 156.774 809.11 177.451 671.564 186.9C510.833 197.941 372.575 171.011 244.733 146.109C159.748 129.556 79.3664 113.899 0.0452881 110.889Z" fill="#FDAA08"/>
</svg>

<svg width="1920" height="190" fill="none" xmlns="http://www.w3.org/2000/svg"><path fill-rule="evenodd" clip-rule="evenodd" d="M.045 110.889V26.812a4308.241 4308.241 0 01123.528 19.286c451.34 77.101 837.564 37.097 1042.807 18.87 4.06-.361 8.04-.715 11.94-1.06 37.47-3.32 86.12-8.185 142.4-13.812C1485.05 33.664 1714.39 10.73 1920 .809v112.168c-142.6 6.833-309.75-3.55-442.39-13.843-199.53-15.484-327.11 10.035-468.09 38.232-97.033 19.408-200.41 40.085-337.956 49.534-160.731 11.041-298.989-15.889-426.831-40.791-84.985-16.553-165.367-32.21-244.688-35.22z" fill="#FDAA08"/></svg>
